package/converter/svg/regular/code.svg

<svg xmlns="http://www.w3.org/2000/svg" viewBox="0 0 640 512"><!-- Font Awesome Pro 6.0.0-alpha2 by @fontawesome - https://fontawesome.com License - https://fontawesome.com/license (Commercial License) --><path d="M169.5 119.594C160.469 109.906 145.25 109.438 135.594 118.5L7.594 238.5C2.75 243.031 0 249.375 0 256S2.75 268.969 7.594 273.5L135.594 393.5C140.219 397.844 146.125 400 152 400C158.406 400 164.781 397.469 169.5 392.406C178.562 382.75 178.094 367.562 168.406 358.5L59.094 256L168.406 153.5C178.094 144.438 178.562 129.25 169.5 119.594ZM390.375 0.875C377.563 -2.656 364.406 4.844 360.875 17.625L232.875 481.625C229.344 494.406 236.844 507.625 249.625 511.125C251.75 511.719 253.906 512 256 512C266.531 512 276.188 505.031 279.125 494.375L407.125 30.375C410.656 17.594 403.156 4.375 390.375 0.875ZM632.406 238.5L504.406 118.5C494.75 109.438 479.531 109.906 470.5 119.594C461.438 129.25 461.906 144.438 471.594 153.5L580.906 256L471.594 358.5C461.906 367.562 461.438 382.75 470.5 392.406C475.219 397.469 481.594 400 488 400C493.875 400 499.781 397.844 504.406 393.5L632.406 273.5C637.25 268.969 640 262.625 640 256S637.25 243.031 632.406 238.5Z"/></svg>

<svg xmlns="http://www.w3.org/2000/svg" viewBox="0 0 640 512"><!--! Font Awesome Pro 6.6.0 by @fontawesome - https://fontawesome.com License - https://fontawesome.com/license (Commercial License) Copyright 2024 Fonticons, Inc. --><path d="M399.1 1.1c-12.7-3.9-26.1 3.1-30 15.8l-144 464c-3.9 12.7 3.1 26.1 15.8 30s26.1-3.1 30-15.8l144-464c3.9-12.7-3.1-26.1-15.8-30zm71.4 118.5c-9.1 9.7-8.6 24.9 1.1 33.9L580.9 256 471.6 358.5c-9.7 9.1-10.2 24.3-1.1 33.9s24.3 10.2 33.9 1.1l128-120c4.8-4.5 7.6-10.9 7.6-17.5s-2.7-13-7.6-17.5l-128-120c-9.7-9.1-24.9-8.6-33.9 1.1zm-301 0c-9.1-9.7-24.3-10.2-33.9-1.1l-128 120C2.7 243 0 249.4 0 256s2.7 13 7.6 17.5l128 120c9.7 9.1 24.9 8.6 33.9-1.1s8.6-24.9-1.1-33.9L59.1 256 168.4 153.5c9.7-9.1 10.2-24.3 1.1-33.9z"/></svg>
